X: 1
T: I'll Tell My Ma   [D]
O: Trad Ireland
Z: 2006 John Chambers <jc@trillian.mit.edu>
M: C
L: 1/8
K: D
A \
|  "D"A2d2 f3f  |"(G2)"g2f2 "D"f3f | "A7"f2e2     e3f  | "D"e2d2  d2z :|
[| "D"a2a2 a2f2 | "E2m"g2g2   g2e2 |  "D"f3f      f2d2 | "A7"e2c2 B2A2 |
|  "D"a2a2 a2f2 |   "G"g2g2   g4   |  "D"f2dd "A7"e2f2 |  "D"e2d2 d2z |]
